X:408
T:Sledd Ridin'
C:Dale Sledd Arrangement inspired by Tristan Scroggins
N:Transcribed by Larry Tanner
R:bluegrass
L:1/8
Q:1/4=230
M:4/4
K:A
z2 EF AB cd | 
K:C
"A"de e2 ee ee | e2 e^f ec B2 | A2 GA AA A2 | A2 E^F A2 ^c2 | "A"de e2 ee ee | 
e2 e^f ec B2 | "A7"[B2G2] [BG][BG] [BG][BG] [BG][BG] | A2 d2 ^f2 f2 | "D"[a^f][af] [af][af] [af][af] [af][af] | 
[a2^f2] [b2f2] af e^d | d2 [d2A2] [d2A2] [d2A2] | [d2A2] E^F A2 ^c2 | "A"de ee ee ee | 
e2 e^f ec B2 | A2 GA AA AA | AA A2 ^G2 A2 | "Bm"[B^F][BF] [BF][BF] [BF][BF] [B2F2] | 
^G=G E2 ^F2 ^G2 | "A"[^cA][cA] [cA][cA] [cA][cA] [cA][cA] | [^c2A2] AA ^G2 A2 | 
"Bm"[B^F][BF] [BF][BF] [BF][BF] [B2F2] | "E"^G=G E2 ^F2 ^G2 | "A"[^cA][cA] [cA][cA] [c2A2] [c2^G2] | 
[^c2G2] ^f2 d2 f2 | "D"[a^f][af] [af][af] [af][af] [af][af] | [a2^f2] [b2f2] af e^d | 
d2 [d2A2] [d2A2] [d2A2] | [d2A2] E^F A2 ^c2 | "A"c^c ee =c^c ee | c^c ee =c^c ee | 
c^c ee =c^c ee | cB A2 d2 ^f2 | "D"[a^f][af] [af][af] [af][af] [af][af] | [a2^f2] [b2f2] af ed | 
[dA][dA] [dA][dA] [dA][dA] [dA][dA] | [dA][dA] dd ^c2 d2 | "E"[eB][eB] [eB][eB] [eB][eB] [eB][eB] | 
[eB][eB] [eB][eB] [eB][eB] [eB][eB] | [^ge][ge] [ge][ge] [ge][ge] [ge][ge] | [^ge][ge] [ge][ge] [ge][ge] [ge][ge] | 
[b^g][bg] [bg][bg] [bg][bg] [bg][bg] | [b^g][bg] [bg][bg] [bg][bg] [bg][bg] | 
_B=B ed BA G2 | E8 | 


